ds42/src/images/icons/spa-icon.svg

<?xml version="1.0" encoding="UTF-8"?>
<svg width="18px" height="18px" viewBox="0 0 18 18" version="1.1" xmlns="http://www.w3.org/2000/svg" xmlns:xlink="http://www.w3.org/1999/xlink">
    <!-- Generator: Sketch 62 (91390) - https://sketch.com -->
    <title>spa-icon</title>
    <desc>Created with Sketch.</desc>
    <g id="Page-1" stroke="none" stroke-width="1" fill="none" fill-rule="evenodd">
        <g id="Artboard" transform="translate(-191.000000, -353.000000)" fill="#8DC63F">
            <g id="SPA-Icon" transform="translate(191.000000, 353.000000)">
                <path d="M1.51894076,0.200166603 L8.27305715,0.295515692 C8.56606983,0.279858757 8.85160007,0.374936335 9.06157897,0.584915229 L17.5125604,9.03589671 C17.9368648,9.46020108 17.8919989,10.1930001 17.4123503,10.6726486 L11.3329817,16.7520173 C10.8533323,17.2316666 10.1205333,17.2765326 9.69622896,16.8522282 L1.24524748,8.40124672 C1.03557406,8.19157329 0.940468635,7.90656728 0.955780325,7.61400326 L0.860413442,0.858692833 C0.855995803,0.541466876 1.11191056,0.249042071 1.43207349,0.205541216 C1.46112179,0.20159556 1.49015895,0.199816833 1.51894076,0.200166603 Z M8.32218237,3.12655478 C7.86397489,3.15201075 7.40895623,3.2792887 6.95711273,3.50839244 C6.59563794,3.69167544 6.27489643,3.90550294 5.99488223,4.1498792 L5.79250787,4.33888936 L5.70659439,4.42480283 L5.07656225,3.79477069 L4.56108141,4.31025153 L5.20065949,4.94982962 C4.95882776,5.24257329 4.76472889,5.56395011 4.61835705,5.91396971 C4.47198522,6.26398932 4.38766358,6.6187766 4.3653896,6.97834219 C4.34311563,7.33790779 4.38925389,7.68951312 4.50380576,8.03316874 C4.61835763,8.37682435 4.8188204,8.69183727 5.10520007,8.97821695 C5.42339972,9.29641659 5.74318556,9.50801618 6.0645672,9.61302206 C6.38594884,9.71802794 6.71528053,9.7514384 7.05257215,9.71325445 C7.38986377,9.67507049 7.72555936,9.581203 8.05966898,9.43164917 C8.28240873,9.33194662 8.50726755,9.22305276 8.73424846,9.1049661 L9.07631176,8.9209413 L9.13358741,8.88275753 L11.1477811,10.8969512 C10.8550374,11.1387829 10.5304786,11.323336 10.174095,11.4506158 C9.8771087,11.5566824 9.57570671,11.596457 9.26988276,11.5699402 L9.0858577,11.5460752 L9.10494958,13.3025285 C9.70316491,13.3152565 10.2615969,13.1959334 10.7802623,12.9445557 C11.2124835,12.7350742 11.6082395,12.464829 11.9675383,12.1338142 L12.1787428,11.9279129 L12.8565046,12.6056747 L13.3719855,12.0901939 L12.6846777,11.4028861 C12.9583294,11.0655945 13.1762928,10.7139891 13.3385747,10.3480596 C13.5008565,9.98212997 13.593133,9.61302392 13.615407,9.24073034 C13.6376809,8.86843676 13.5835878,8.50251266 13.453126,8.14294706 C13.3226641,7.78338147 13.0983367,7.44450393 12.7801371,7.12630429 C12.4555734,6.80174065 12.1230598,6.59332301 11.7825862,6.50104512 C11.4421126,6.40876722 11.1000531,6.3912665 10.7563975,6.44854244 C10.4127419,6.50581837 10.0675004,6.61877755 9.72066281,6.78742336 C9.48943774,6.8998539 9.26033628,7.01864722 9.03335538,7.14380493 L8.6944741,7.336315 L8.64674439,7.36495283 L6.73755608,5.45576452 C6.96029583,5.23302477 7.21962465,5.06597246 7.51555031,4.95460259 C7.75229085,4.86550669 7.99208321,4.81612258 8.23493202,4.8064495 L8.41764179,4.80664049 L8.32218237,3.12655478 Z M10.7468515,8.14772003 C10.9059513,8.11590007 11.0634578,8.11749104 11.2193756,8.152493 C11.3752935,8.18749497 11.5232541,8.27499855 11.6632619,8.4150064 C11.8032698,8.55501424 11.9019102,8.70774778 11.9591861,8.87321159 C12.016462,9.03867541 12.0403267,9.20572771 12.0307807,9.37437352 C12.0212347,9.54301933 11.9846423,9.71325359 11.9210023,9.8850814 C11.8573624,10.0569092 11.7714498,10.2223705 11.6632619,10.3814704 L11.6632619,10.3814704 L9.80180331,8.52001175 C9.95453914,8.44364384 10.1104546,8.37045902 10.2695545,8.3004551 C10.4286543,8.23045118 10.5877517,8.17954 10.7468515,8.14772003 Z M6.24116712,5.99033724 L7.98807442,7.73724455 C7.82261061,7.80088448 7.66669512,7.86452345 7.52032328,7.92816338 C7.37395145,7.99180331 7.23076376,8.02998669 7.09075592,8.04271468 C6.95074807,8.05544266 6.8123333,8.04112389 6.67550746,7.99975794 C6.53868161,7.95839199 6.39708489,7.8645245 6.25071306,7.71815266 C6.00888133,7.47632094 5.90069508,7.1931275 5.92615105,6.86856387 C5.95160702,6.54400023 6.05661133,6.25126095 6.24116712,5.99033724 L6.24116712,5.99033724 Z M2.25000016,0.75 C1.75294429,0.75 1.35000014,1.15294305 1.35000014,1.65000001 C1.35000014,2.14705588 1.75294429,2.55000003 2.25000016,2.55000003 C2.74705712,2.55000003 3.15000017,2.14705588 3.15000017,1.65000001 C3.15000017,1.15294305 2.74705712,0.75 2.25000016,0.75 Z" id="color"></path>
            </g>
        </g>
    </g>
</svg>

<svg width="18" height="18" xmlns="http://www.w3.org/2000/svg">
  <path d="M1.519.2l6.754.096c.293-.016.579.079.789.289l8.45 8.45c.425.425.38 1.158-.1 1.638l-6.079 6.079c-.48.48-1.212.525-1.637.1l-8.45-8.45a1.023 1.023 0 01-.29-.788L.86.859A.671.671 0 011.52.2zm6.803 2.927a3.42 3.42 0 00-1.365.381 4.659 4.659 0 00-.962.642l-.202.189-.086.086-.63-.63-.516.515.64.64a3.82 3.82 0 00-.583.964c-.146.35-.23.705-.253 1.064-.022.36.024.712.139 1.055.114.344.315.659.601.945.318.318.638.53.96.635.32.105.65.138.988.1a3.39 3.39 0 001.007-.281c.222-.1.447-.209.674-.327l.342-.184.058-.038 2.014 2.014a3.216 3.216 0 01-.974.554 2.116 2.116 0 01-.904.119l-.184-.024.019 1.757a3.61 3.61 0 001.675-.358c.432-.21.828-.48 1.188-.811l.21-.206.679.678.515-.516-.687-.687c.273-.337.491-.689.654-1.055.162-.366.254-.735.276-1.107a2.712 2.712 0 00-.162-1.098 2.791 2.791 0 00-.673-1.017c-.324-.324-.657-.533-.997-.625a2.382 2.382 0 00-1.027-.052c-.343.057-.688.17-1.035.338-.232.113-.46.232-.688.357l-.339.192-.047.029-1.91-1.91c.223-.222.483-.389.779-.5a2.29 2.29 0 01.719-.149h.183l-.096-1.68zm2.425 5.02c.159-.031.316-.03.472.005a.916.916 0 01.444.263c.14.14.239.293.296.458.057.166.081.333.072.501-.01.169-.046.34-.11.511-.064.172-.15.337-.258.496L9.802 8.52c.153-.076.308-.15.468-.22.159-.07.318-.12.477-.152zM6.24 5.99l1.747 1.747c-.165.064-.321.128-.468.191-.146.064-.29.102-.43.115A1.083 1.083 0 016.677 8a1.059 1.059 0 01-.425-.282 1.04 1.04 0 01-.325-.85c.026-.324.13-.617.315-.878zM2.25.75a.9.9 0 100 1.8.9.9 0 000-1.8z" fill="#8DC63F" fill-rule="evenodd"/>
</svg>
